X:1
T:The Royal Fountain
T:The Royal Fountain
T:William James Kirkpatrick
T:William Henry Clark, 1876
T:Public Domain Courtesy of the Cyber Hymnal™
T:Public Domain Courtesy of the Cyber Hymnal™
C:William James Kirkpatrick
Z:Public Domain
Z:Courtesy of the Cyber Hymnal™
%%score ( 1 2 ) ( 3 4 )
L:1/8
Q:1/4=100
M:4/4
K:D
V:1 treble 
V:2 treble 
V:3 bass 
V:4 bass 
V:1
 ([DF][EG]) | [FA]3 [GB] [FA]2 [Fd]2 | (dc) (Bc) [Fd]2 [GB]2 | [FA]3 [DF] [FA][EG][DF][CE] | %4
w: 1.~See *|where the liv- ing|wa- * ters * glide, From|Da- vid’s house they sweet- ly|
w: 2.~It *|flows an ev- er|run- * ning * stream, Pure|as the fount- ain of His|
w: 3.~Down *|through the ag- es|flow- * ing * wide, Its|vir- tue is to- day the|
w: 4.~Who- *|ev- er will, may|drink * and * live; New|life the heal- ing draught in-|
w: 5.~All *|o- ver Ca- naan’s|god- * ly * land, Where|saints en- joy such sweet re-|
 D6 [DF]2 | [CE]3 [DF] [CE]2 [EA]2 | (A^G) (FG) [CA]2 [Ec]2 | [EB]3 [Ec] [Ee][Ed][Ec][DB] | %8
w: flow; Who|wash- es in the|cleans- * ing * tide, Is|whit- er than the driv- en|
w: grace, Who|died that He might|thus * re- * deem The|fal- len sons of Ad- am’s|
w: same, As|when from out His|pierc- * èd * side, The|min- gled tide of be- ing|
w: spires; From|those who no- thing|have * to * give, The|roy- al boun- ty naught re-|
w: pose; ’Mid|pas- tures green on|ev- * ery * hand, King|Da- vid’s roy- al fount- ain|
 [CA]6 ||"^Refrain" [FA]2 | [Fd]2 [FA]>[FA] [FA]2 F2 | [GB]4 [FA]2 z2 | %12
w: snow.||||
w: race.||||
w: came.|Then|come to the roy- al|fount- ain,|
w: quires.||||
w: flows.||||
 [EA][EB][Ec][Fd] [Ge]2 [Fd]2 | ([Fd]4 [Ec]2) z2 | [Fd]2 [FA]>[FA] [FA]2 F2 | [GB]4 [FA]2 z2 | %16
w: ||||
w: ||||
w: Ev- er in its stream a-|bide; *|Come to the roy- al|fount- ain,|
w: ||||
w: ||||
 [FA][EG][DF][DE] [DF]2 [CE]2 | D6 |] %18
w: ||
w: ||
w: O- pened in the Sav- ior’s|side.|
w: ||
w: ||
V:2
 x2 | x8 | E2 G2 x4 | x8 | D6 x2 | x8 | D2 D2 x4 | x8 | x6 || x2 | x6 F2 | x8 | x8 | x8 | x6 F2 | %15
 x8 | x8 | D6 |] %18
V:3
 [D,A,]2 | [D,D]3 [D,D] [D,D]2 [D,A,]2 | A,2 A,2 [D,A,]2 [D,D]2 | %3
 [D,D]3 [D,A,] [D,A,][D,A,][D,A,][A,,G,] | [D,F,]6 [D,A,]2 | [A,,A,]3 [A,,A,] [A,,A,]2 [A,,C]2 | %6
 [E,B,]2 [E,B,]2 [A,,A,]2 [A,,A,]2 | [E,^G,]3 [E,A,] [E,C][E,B,][E,A,][E,G,] | [A,,A,]6 || %9
 [D,A,]2 | [D,A,]2 [D,D]>[D,D] [D,D]2 [D,D]2 | [G,D]4 [D,D]2 z2 | %12
 [A,C][A,D][A,E][A,D] [A,C]2 [A,C]2 | A,6 z2 | [D,A,]2 [D,D]>[D,D] [D,D]2 [D,D]2 | %15
 [G,D]4 [D,D]2 z2 | [D,D][E,C][F,D][G,B,] A,2 [A,,G,]2 | [D,F,]6 |] %18
V:4
 x2 | x8 | A,2 A,2 x4 | x8 | x8 | x8 | x8 | x8 | x6 || x2 | x8 | x8 | x8 | A,6 x2 | x8 | x8 | %16
 x4 A,2 x2 | x6 |] %18

